!!!Melodie: herzlich tut mich verlangen
!!!Typ: Lied
**kern	**silbe	**silbe	**silbe	**silbe	**silbe	**silbe	**silbe	**silbe	**silbe	**silbe	**silbe	**silbe
*clefG2	*lang:DE	*lang:DE	*lang:DE	*lang:DE	*lang:DE	*lang:DE	*lang:DE	*lang:DE	*lang:DE	*lang:DE	*lang:DE	*lang:DE
*M4/4	*	*	*	*	*	*	*	*	*	*	*	*
*met(c)	*	*	*	*	*	*	*	*	*	*	*	*
2e	Be#	Dem	Dein	Weg	Und	Hoff'	Auf!	Ihn,	Er	Wird's	Wohl	Mach
2a	#fiehl	Her#	ew'#	hast	ob	O	Auf!	ihn	wird	a#	dir,	End',
4g	du	#ren	#ge	du	gleich	du	Gib	lass	zwar	#ber	du	O
2f	dei#	musst	Treu'	al#	al#	ar#	dei#	tun	ei#	sich	Kind	Herr,
4e	#ne	du	und	#ler#	#le	#me	#nem	und	#ne	be#	der	mach
2d	We#	trau#	Gna#	#we#	Teu#	See#	Schmer#	wal#	Wei#	#fin#	Treu#	En#
2e	#ge	#en,	#de,	#gen,	#fel	#le,	#ze	#ten:	#le	#den,	#e:	#de
=	=	=	=	=	=	=	=	=	=	=	=	=
2b	und	wenn	O	An	hier	Hoff'	und	er	mit	dass	du	an
2cc	was	dir's	Va#	Mit#	wol#	und	Sor#	ist	sei#	du	hast	al#
4cc	dein	soll	#ter,	#teln	#ten	sei	#gen	ein	#nem	ihm	und	#ler
2b	Her#	wohl	weiß	fehlt’s	wi#	un#	gu#	wei#	Trost	treu	trägst	uns#
4b	#ze	er#	und	dir	#der#	#ver#	#te	#ser	ver#	ver#	da#	#'rer
1a	kränkt,	#geh'n;	sieht,	nicht;	#steh'n,	#zagt!	Nacht;	Fürst,	#ziehn,	#bleibst,	#von	Not;
=	=	=	=	=	=	=	=	=	=	=	=	=
2e	der	auf	was	dein	so	Gott	lass	und	Und	so	mit	stärk'
2a	al#	sein	gut	Tun	wird	wird	fah#	wird	tun	wird	Ruhm	uns#
4g	#ler#	Werk	sei	ist	doch	dich	#ren,	sich	an	er	und	#'re
2f	#treu#	musst	o#	lau#	oh#	aus	was	so	sei#	dich	Dank#	Füß'
4e	#'sten	du	#der	#ter	#ne	der	das	ver#	#nem	ent#	#ge#	und
2d	Pfle#	schau#	scha#	Se#	Zwei#	Höl#	Her#	#hal#	Tei#	#bin#	#schrei#	Hän#
2e	#ge	#en,	#de	#gen,	#fel	#le,	#ze	#ten,	#le,	#den,	#e	#de,
=	=	=	=	=	=	=	=	=	=	=	=	=
2b	des,	wenn	dem	dein	Gott	da	be#	dass	als	da	den	und
2cc	der	dein	sterb#	Gang	nicht	dich	#trübt	du	hätt'	du's	Sieg	lass
4cc	den	Werk	#lich#	ist	zu#	der	und	dich	in	am	und	bis
2b	Him#	soll	#en	lau#	#rük#	Kum#	trau#	wun#	sei#	wen'g#	Eh#	in
4b	#mel	be#	Ge#	#ter	#ke	#mer	#rig	#dern	#nem	#sten	#ren#	den
2a	lenkt;	#steh'n.	#blüt';	Licht.	geh’n:	jagt,	macht.	wirst,	Sinn,	glaubst:	#kron'!	Tod
=	=	=	=	=	=	=	=	=	=	=	=	=
4r	%	%	%	%	%	%	%	%	%	%	%	%
4cc	der	Mit	und	Dein	was	mit	Bist	wenn	er	er	Gott	uns
4b	Wol#	Sor#	was	Werk	er	gros#	du	er,	dei#	wird	gibt	all#
4g	#ken,	#gen	du	kann	ihm	#sen	doch	wie	#ner	dein	dir	#zeit
4a	Luft	und	dann	nie#	vor#	Gna#	nicht	ihm	sich	Her#	selbst	dei#
4b	und	mit	er#	#mand	#ge#	#den	Re#	ge#	be#	#ze	die	#ner
2cc	Win#	grä#	#le#	hin#	#nom#	rük#	#gen#	#büh#	#gä#	lö#	Pal#	Pfle#
4cc	#den	#men,	#sen,	#dern,	#men,	#ken;	#te,	#ret,	#ben,	#sen	#men	#ge,
=	=	=	=	=	=	=	=	=	=	=	=	=
4g	gibt	und	das	dein	und	er#	der	mit	und	von	in	und
4a	We#	mit	treibst	Ar#	was	#war#	al#	wun#	sollst	der	dei#	Treu’
4g	#ge,	selbst#	du,	#beit	er	#te	#les	#der#	du	so	#ne	em#
4a	Lauf	#eig#	star#	darf	ha#	nur	füh#	#ba#	für	schwe#	rech#	#pfoh#
4f	und	#'ner	#ker	nicht	#ben	der	#ren	#rem	und	#ren	#te	#len
1e	Bahn,	Pein	Held,	ruh’n,	will,	Zeit:	soll:	Rat	für	Last,	Hand;	sein,
=	=	=	=	=	=	=	=	=	=	=	=	=
2cc	der	lässt	und	wenn	das	so	Gott	das	in	die	und	so
2b	wird	Gott	bringst	du,	muss	wirst	sitzt	Sach’	Angst	du	du	ge#
4dd	auch	ihm	zum	was	doch	du	im	hi#	und	zu	singst	#hen
2cc	We#	gar	Stand	dei#	end#	schon	Re#	#naus#	Nö#	kei#	Freu#	uns#
4b	#ge	nichts	und	#ne	#lich	er#	#gi#	#ge#	#ten	#nem	#den#	#'re
2a	fin#	neh#	We#	Kin#	kom#	#blik#	#men#	#füh#	schwe#	bö#	#psal#	We#
2b	#den,	#men:	#sen,	#dern	#men	#ken	#te,	#ret,	#ben,	#sen	#men,	#ge
=	=	=	=	=	=	=	=	=	=	=	=	=
2e	da	es	was	er#	zu	die	und	das	so	bis#	dem,	ge#
2f	dein	muss	dei#	#sprieß#	sei#	Sonn'	füh#	dich	fragt	#her	der	#wiss
4e	Fuß	er#	#nem	#lich	#nem	der	#ret	be#	er	ge#	dein	zum
2d	ge#	#be#	Rat	ist,	Zweck	schön#	al#	#küm#	nichts	#tra#	Leid	Him#
4d	#hen	#ten	ge#	willst	und	#sten	#les	#mert	nach	#gen	ge#	#mel
1;e	kann.	sein.	#fällt.	tun.	Ziel.	Freud'.	wohl.	hat.	dir.	hast.	#wandt.	ein.
==	==	==	==	==	==	==	==	==	==	==	==	==
*-	*-	*-	*-	*-	*-	*-	*-	*-	*-	*-	*-	*-
